X: 38574
T: Stolen Kiss, The
R: slip jig
M: 9/8
K: Amajor
|:E2F A2B ecB|{ce}c2B A2B {c}BAF|E2F A2B ecB|c9|
d3 d2c {Bc}B2A|B2c A2B {AB}A2F|d3 d2c {Bc}B2A|1 B9:|2 B6 efg||
|:a3 {ab}a2g a2b|a2g f2e c2e|{fa}f2e e2c fec|e6 ABc|
[1 d3 d2 c d2e|c2B A3 A2B|F2A A2B cBA|B6 efg:|
[2 d3 d2 c d2e|c2B A3 ABc|d3 {de}d2c d2e|e9||

